X:1
T:Title
%%score { ( 1 3 6 ) | ( 2 4 5 ) }
L:1/8
M:4/4
K:Ab
V:1 treble nm="Grand Piano"
V:3 treble 
V:6 treble 
V:2 bass 
V:4 bass 
V:5 bass 
V:1
 z4 z2[Q:1/4=96] [CA]>[DB] | [Ec]2 [CE]2 [CE]2 [EA]>[EG] | [FB]2 F2 F2 (3FGA | G4 B2 (3FGF | %4
 [CE]4 [Ec]2 [CA]>[DB] | [Ec]2 [CE]2 [CE]2 [EA]>[EG] | [FB]2 [DF]2 [DF]2 (3[FB][Fc][Fd] | %7
 c2 c>A B2 B2 |[M:3/4] [CEA]6 |[M:1/4] (3c_c=c |[M:4/4] e4 [Ac]2 z2 | G4 d2 z2 | G>G G>F E2 d2 | %13
 [Ec]6 z2 | [Ee]4 z4 | %15
[M:33/32] [Fd]/4-[Fd]/4-[Fd]/4-[Fd]/4-[Fd]/4-[Fd]/4-[Fd]/4-[Fd]/4-[Fd]/4-[Fd]/4-[Fd]/4-[Fd]/4-[Fd]/-<[Fd]/ z/4 z/4 z/4 z/4 z/4 z/4 z/4 z/4 z/4 z/4 z/4 z/4 z/4 z/4 z/4 z/ | %16
[M:4/4] z4 [Ac]2- [Ac]/4 z/4 z/ z |[M:3/4] z6 |] %18
V:2
 z4 z2 [A,,A,]>[A,,A,] | [A,,A,]2 [A,,A,]2 [A,,A,]2 [C,A,]>[C,A,] | %2
 [D,A,]2 [D,A,D]2 [D,A,D]2 (3[D,A,D][D,G,D][D,F,D] | [E,B,D]4 [E,G,D]2 (3[E,B,D][E,B,D][E,G,D] | %4
 [A,,A,]4 [A,,A,]2 [A,,A,]>[A,,A,] | [A,,A,]2 [A,,A,]2 [A,,A,]2 [C,A,]>[C,A,] | %6
 [D,A,]2 [D,A,]2 [D,A,]2 (3[D,A,][C,=A,][B,,B,] | [E,A,E]2 [E,A,E]>[E,CE] [E,DE]2 [E,DE]2 | %8
[M:3/4] A,,6 |[M:1/4][K:treble] (3[A,EA][A,=DA][A,EA] |[M:4/4] A4[K:bass] z4 | E4 E2 z2 | %12
 [E,B,E]>[E,B,E] [E,B,E]>[E,A,E] [E,G,]2 [E,G,E]2 | %13
 [A,,A,]>A,, A,,>A,, A,,2 (3[A,,A,][A,,A,][A,,A,] | %14
 [C,A,]>C, (3C,C,C, [A,,A,]>[A,,A,] (3[A,,A,][A,,A,][A,,A,] | %15
[M:33/32] [D,A,]/4-[D,A,]/4-[D,A,]/-<[D,A,]/D,/D,/D,/-<D,/D,/[D,D]/4-[D,D]/4-[D,D]/-<[D,D]/[D,D]/[D,D]/-<[D,D]/[D,D]/[D,D]3/4 | %16
[M:4/4] (5:4:5[E,C]2 [E,C]/ [E,C]/-[E,C]3/2E,/ E,2 z2 |[M:3/4] A,,6 |] %18
V:3
 x8 | x8 | x8 | x8 | x8 | x8 | x8 | x8 |[M:3/4] x6 |[M:1/4] x2 |[M:4/4] z z/ C/ (3CCC E>E (3ABA | %11
 z z/ D/ (3DDD z z/ B,/ E>F | x8 | z z/ A,/ A,>A, A,2 (3[Ec][=D_c][E=c] | %14
 z z/ A,/ (3A,A,A, [Ec]2 (3[_Gc][GB][Gc] | %15
[M:33/32] z/4 z/4 z/4 z/4 z/ A,/A,/A,/-<A,/A,/[Af]/4-[Af]/4-[Af]/4-[Af]/4-[Af]/-<[Af]/[Af]/-<[Af]/[Af]/[Af]3/4 | %16
[M:4/4] (5:4:5[Ae]2 [Ae]/ [Ae]/-[Ae]3/2[CA]/ E2 E2 |[M:3/4] [CEA]6 |] %18
V:4
 x8 | x8 | x8 | x8 | x8 | x8 | x8 | x8 |[M:3/4] x6 |[M:1/4][K:treble] x2 | %10
[M:4/4] z z/ A,/[K:bass] (3A,A,A, A,>A, (3[A,CE][A,DE][A,CE] | [B,D]2 z2 z4 | x8 | x8 | x8 | %15
[M:33/32] x33/4 |[M:4/4] z4 z2 E,2- |[M:3/4] E,3/4 z/4 z z2 z2 |] %18
V:5
 x8 | x8 | x8 | x8 | x8 | x8 | x8 | x8 |[M:3/4] x6 |[M:1/4][K:treble] x2 | %10
[M:4/4] [A,C]2[K:bass] z2 z4 | z z/ B,/ (3E,E,E, [E,B,]>E, [E,G,]>[E,A,E] | x8 | x8 | x8 | %15
[M:33/32] x33/4 |[M:4/4] x8 |[M:3/4] x6 |] %18
V:6
 x8 | x8 | x8 | x8 | x8 | x8 | x8 | x8 |[M:3/4] x6 |[M:1/4] x2 |[M:4/4] x8 | x8 | x8 | x8 | x8 | %15
[M:33/32] x33/4 |[M:4/4] z4 z2 [DB]2- |[M:3/4] [DB]3/4 z/4 z z2 z2 |] %18

